packages/gestalt-icons-android/vr-theme/ic_vr_share_gestalt.svg

<svg width="24" height="24" viewBox="0 0 24 24" fill="none" xmlns="http://www.w3.org/2000/svg">
<path d="M16.2929 7.20726L13 3.91436V15L11 15V3.91436L7.70711 7.20726L6.29289 5.79304L12 0.0859375L17.7071 5.79304L16.2929 7.20726Z" fill="black"/>
<path d="M2 18.0001V13.0001H0V18.0001C0 20.2093 1.79086 22.0001 4 22.0001H20C22.2091 22.0001 24 20.2093 24 18.0001V13.0001H22V18.0001C22 19.1047 21.1046 20.0001 20 20.0001H4C2.89543 20.0001 2 19.1047 2 18.0001Z" fill="black"/>
</svg>

<svg xmlns="http://www.w3.org/2000/svg" width="24" height="24"><path d="M17.7 5.8 12 .08l-5.7 5.7L7.7 7.2 11 3.9V15h2V3.91l3.3 3.3zM2 18v-5H0v5a4 4 0 0 0 4 4h16a4 4 0 0 0 4-4v-5h-2v5a2 2 0 0 1-2 2H4a2 2 0 0 1-2-2"/></svg>
